dist/static/img/vako/svg/tech-ic_08.svg

<svg width="48" height="48" viewBox="0 0 48 48" fill="none" xmlns="http://www.w3.org/2000/svg">
<g clip-path="url(#clip0_3377_546)">
<path d="M41.0516 13.2017C42.9304 15.0108 44.4235 17.1656 45.4445 19.5417C46.4655 21.9178 46.9942 24.4679 47 27.0448C47.0057 29.6216 46.4885 32.174 45.4782 34.5544C44.4679 36.9349 42.9845 39.0961 41.1138 40.9132C38.799 43.1674 36.0519 44.9538 33.0296 46.1702C30.0073 47.3866 26.7692 48.0092 23.5003 48.0023C19.8682 48.0103 16.2783 47.2411 12.9832 45.7488C9.68803 44.2565 6.76754 42.0774 4.42706 39.3646C14.1802 47.2333 28.705 46.7391 37.8614 37.8873C39.3265 36.4764 40.4899 34.7952 41.284 32.9414C42.0781 31.0875 42.487 29.098 42.487 27.0885C42.487 25.079 42.0781 23.0895 41.284 21.2356C40.4899 19.3818 39.3265 17.7006 37.8614 16.2897C31.6922 10.3251 21.6902 10.3251 15.5209 16.2897C14.8927 16.8943 14.3938 17.6149 14.0533 18.4095C13.7128 19.2042 13.5374 20.057 13.5374 20.9184C13.5374 21.7798 13.7128 22.6327 14.0533 23.4273C14.3938 24.2219 14.8927 24.9425 15.5209 25.5471C16.7968 26.7757 18.5165 27.4645 20.3082 27.4645C22.0999 27.4645 23.8196 26.7757 25.0954 25.5471C25.5207 25.1376 26.0939 24.908 26.6912 24.908C27.2884 24.908 27.8616 25.1376 28.2869 25.5471C28.4959 25.7486 28.6618 25.9886 28.7751 26.2532C28.8884 26.5178 28.9467 26.8017 28.9467 27.0885C28.9467 27.3753 28.8884 27.6592 28.7751 27.9238C28.6618 28.1884 28.4959 28.4284 28.2869 28.6299C26.1606 30.6771 23.2947 31.8248 20.3088 31.8248C17.323 31.8248 14.4571 30.6771 12.3307 28.6299C11.2845 27.6221 10.4537 26.4213 9.88661 25.0973C9.31955 23.7732 9.02754 22.3523 9.02754 20.9171C9.02754 19.4819 9.31955 18.061 9.88661 16.7369C10.4537 15.4129 11.2845 14.2121 12.3307 13.2043C20.2601 5.53381 33.1195 5.53381 41.0516 13.2043V13.2017ZM23.5003 0.00127892C27.1324 -0.00648763 30.7221 0.76294 34.0171 2.25546C37.312 3.74798 40.2322 5.92735 42.5723 8.64033C32.8178 0.771632 18.2916 1.26714 9.14059 10.1136V10.1163C7.67528 11.5272 6.51171 13.2085 5.71752 15.0625C4.92333 16.9164 4.51435 18.9061 4.51435 20.9158C4.51435 22.9255 4.92333 24.9151 5.71752 26.7691C6.51171 28.623 7.67528 30.3043 9.14059 31.7152C15.3071 37.6812 25.3078 37.6812 31.4771 31.7152C32.1051 31.1106 32.6038 30.3901 32.9442 29.5956C33.2846 28.8011 33.4599 27.9484 33.4599 27.0872C33.4599 26.2259 33.2846 25.3732 32.9442 24.5787C32.6038 23.7842 32.1051 23.0637 31.4771 22.4591C30.2012 21.2305 28.4815 20.5418 26.6898 20.5418C24.8981 20.5418 23.1784 21.2305 21.9026 22.4591C21.4773 22.8682 20.9044 23.0976 20.3075 23.0976C19.7106 23.0976 19.1376 22.8682 18.7124 22.4591C18.5032 22.2576 18.3371 22.0176 18.2237 21.7528C18.1104 21.4881 18.052 21.204 18.052 20.9171C18.052 20.6301 18.1104 20.3461 18.2237 20.0813C18.3371 19.8166 18.5032 19.5765 18.7124 19.3751C20.8388 17.3278 23.7047 16.1801 26.6905 16.1801C29.6763 16.1801 32.5422 17.3278 34.6686 19.3751C35.7149 20.3828 36.5457 21.5836 37.1127 22.9077C37.6798 24.2317 37.9718 25.6526 37.9718 27.0878C37.9718 28.5231 37.6798 29.944 37.1127 31.268C36.5457 32.5921 35.7149 33.7929 34.6686 34.8006C26.7378 42.4711 13.8785 42.4711 5.94637 34.8006C4.06518 32.9889 2.5709 30.8304 1.55017 28.4504C0.529426 26.0704 0.00252594 23.5162 9.05976e-06 20.9358C-0.00250782 18.3555 0.519408 15.8003 1.5355 13.4184C2.5516 11.0365 4.04166 8.87526 5.91931 7.05999C10.5915 2.5263 16.9142 -0.0122311 23.5003 0.00127892Z" fill="url(#paint0_radial_3377_546)"/>
</g>
<defs>
<radialGradient id="paint0_radial_3377_546" cx="0" cy="0" r="1" gradientUnits="userSpaceOnUse" gradientTransform="translate(-362.353 140.111) rotate(32.1235) scale(4667.44 4747.16)">
<stop stop-color="#00FFC4"/>
<stop offset="1" stop-color="#00E1FF"/>
</radialGradient>
<clipPath id="clip0_3377_546">
<rect width="48" height="48.0012" fill="white" transform="translate(0 0.0012207)"/>
</clipPath>
</defs>
</svg>

<svg width="48" height="48" viewBox="0 0 48 48" fill="none" xmlns="http://www.w3.org/2000/svg"><g clip-path="url(#clip0_3377_546)"><path d="M41.052 13.202a19.483 19.483 0 014.392 6.34A19.107 19.107 0 0147 27.045a19.106 19.106 0 01-1.522 7.51 19.476 19.476 0 01-4.364 6.358 24.92 24.92 0 01-8.084 5.257 25.388 25.388 0 01-9.53 1.832 25.368 25.368 0 01-10.517-2.253 24.813 24.813 0 01-8.556-6.384c9.753 7.868 24.278 7.374 33.434-1.478a15.153 15.153 0 003.423-4.946 14.86 14.86 0 001.203-5.853 14.86 14.86 0 00-1.203-5.852 15.153 15.153 0 00-3.423-4.946c-6.169-5.965-16.17-5.965-22.34 0a6.493 6.493 0 00-1.468 2.12 6.368 6.368 0 000 5.017 6.49 6.49 0 001.468 2.12 6.904 6.904 0 004.787 1.918 6.903 6.903 0 004.787-1.918c.426-.41.999-.639 1.596-.639.597 0 1.17.23 1.596.64.209.2.375.44.488.705a2.121 2.121 0 010 1.67 2.18 2.18 0 01-.488.707 11.506 11.506 0 01-7.978 3.195 11.506 11.506 0 01-7.978-3.195 10.825 10.825 0 01-2.444-3.533 10.615 10.615 0 010-8.36 10.825 10.825 0 012.444-3.533c7.93-7.67 20.789-7.67 28.72 0v-.002zM23.5.002a25.367 25.367 0 0110.517 2.253 24.81 24.81 0 018.555 6.385C32.818.772 18.292 1.267 9.141 10.114v.002a15.151 15.151 0 00-3.423 4.947 14.86 14.86 0 00-1.204 5.853c0 2.01.41 4 1.204 5.853a15.152 15.152 0 003.423 4.946c6.166 5.966 16.167 5.966 22.336 0a6.493 6.493 0 001.467-2.12 6.367 6.367 0 000-5.016 6.493 6.493 0 00-1.467-2.12 6.903 6.903 0 00-4.787-1.917 6.903 6.903 0 00-4.787 1.917 2.3 2.3 0 01-1.595.639c-.597 0-1.17-.23-1.596-.639a2.164 2.164 0 01-.488-.706 2.123 2.123 0 01.488-2.378 11.506 11.506 0 017.979-3.195 11.51 11.51 0 017.978 3.195 10.82 10.82 0 012.444 3.533 10.613 10.613 0 010 8.36 10.82 10.82 0 01-2.444 3.533c-7.931 7.67-20.79 7.67-28.723 0a19.48 19.48 0 01-4.396-6.35A19.105 19.105 0 010 20.935c-.003-2.58.52-5.136 1.536-7.518A19.479 19.479 0 015.918 7.06C10.592 2.526 16.914-.012 23.5.001z" fill="url(#paint0_radial_3377_546)"/></g><defs><radialGradient id="paint0_radial_3377_546" cx="0" cy="0" r="1" gradientUnits="userSpaceOnUse" gradientTransform="matrix(3952.87312 2481.89247 -2524.28326 4020.3883 -362.353 140.111)"><stop stop-color="#00FFC4"/><stop offset="1" stop-color="#00E1FF"/></radialGradient><clipPath id="clip0_3377_546"><path fill="#fff" transform="translate(0 .001)" d="M0 0h48v48.001H0z"/></clipPath></defs></svg>
